X:1
T:James Gibb editions
T:Sancte Deus - Tallis
T:#
%%score [ 1 2 3 4 ]
L:1/8
Q:1/4=108
M:4/4
K:Bb
V:1 treble nm="Soprano" snm="S"
V:2 treble nm="Alto" snm="A"
V:3 treble-8 nm="Tenor" snm="T"
V:4 bass nm="Bass" snm="B"
V:1
"^Sancte Deus""^Thomas Tallis\n(1505-85)" z8 | z4 (G4- | G4 d4- | d4 c4 | B6)"^," A2 | %5
w: |San\-|||* cte|
 (A2 B3 A G2- | G2 c3 BAG) | !fermata!^F8 || z8 | G8 | ^F4 z2 (=F2 | G2 B4 A2- | AG B2 A2 G2- | %13
w: De\- * * *||us,||San-|cte for\-|||
 G^FAG) F4 | z2 (A2 B2 d2- | dG d3 c A2) | !fermata!=B8 || z4 (B4- | B4 G4) | (F4 B4- | %20
w: * * * * tis,|for\- * *||tis,|San\-||cte *|
 B2 E2 B3 c | B4) z2 E2 | B2 c2 (d4 | B2 d3 c c2 | B2 A3 G G2- | G^F G2 A2 F2) | ^F4 z2 D2- | %27
w: |* et|im- mor- ta\-||||lis: mi\-|
 D2 D2 F4- | F2 G2 (A2 B2 | A4) F4 | z2 d4 c2 | A2 c2 (B4 | A2 A3 B A2 | G2 F2 A3 G) | F4 | z2 D6 | %36
w: * se- re\-|* re no\- *|* bis.|mi- se-|re- re no\-|||bis,|mi-|
 F2 G4 D2- | D2 (C2 D2 F2 | =E2 D2) !fermata!D4 || !fermata!G8 | z2 (F4 G2 | A2 B2 c2 d2- | %42
w: se- re- re|* no\- * *|* * bis.|Nunc,|Chri\- *||
 dcBA c>B AG) | !fermata!^F8 || z8 | z8 | D4 F4- | F2 F2 D4- | D8 | z4 B4 | A2 G4 =F2- | %51
w: |ste,|||te pe\-|* ti- mus,||mi-|se- re- re,|
 F2 z2 z2 d2- | d2 c2 (B4- | B2 A2 GF) F2 | z2 d4 c2 | B2 A3 (G c2- | c (BAG B>A ^F2) | %57
w: * mi\-|* se- re\-|* * * * re,|mi- se-|re- re quae\- *|* su\- * * * * *|
 !fermata!G8 || z8 | z2 D4 D2 | F2 G2 A2 B2 | c3 d c2 B2- | B2 A2) A4 | z4 B2 d2- | dd c2 B2 (A2 | %65
w: mus.||Qui ve-|ni\- * * *||* * sti|re- di\-|* me- re per- di\-|
 G2 F4 B,2) | F4 z2 G2 | c3 c B2 A2- | A (B G2 A2 ^F2) | !fermata!^F8 || !fermata!G8 | %71
w: |tos, re-|di- me- re per\-|* di\- * * *|tos,|no-|
 !fermata!A8 || z4 z2 F2 | (B2 A2 G4- | G2 D4 C2) | D4 z2 D2 | (F2 G2 A2 G2- | G2 F2) F4 | %78
w: li|da-|mna\- * *||re re-|dem\- * * *|* * ptos,|
 z2 A2 (B2 c2 | d6 c2 | B2 A4 G2) | !fermata!A8 || z4 G4- | G4 A4- | A2 A2 c4 |"^," B2 (G2 d4- | %86
w: re- dem\- *|||ptos.|Qui\-|* a|* per cru-|cem tu\- *|
 d2 cB A2 c2 | B2 G2 B2) A2- |"^," A2 (G3 B G2 | ^F3 G F2 D2 | C2 D2) C4 | z4 G3 A | B2 G2 (d4- | %93
w: |* * * am,|* tu\- * *||* * am|re- de-|mi- sti mun\-|
 d2 c2 B3 c | B2 A3 G G2 | ^F3 G A2 B2- | B2) A2 (G2 A2 | A2 DG) ^F4 || z2 (D2 G2 F2 | %99
w: |||* dum, mun\- *|* * * dum.|A\- * *|
 B2 A3 G G2- | G2) ^F2 z2 (D2 | G2 =F2 B2 c2- | cBAG ^FG) F2 | z2 (D2 G2 =F2 | B2 c2 d3 c | %105
w: |* men, a\-||* * * * * * men,|a\- * *||
 B4 A2 G2) |"^," ^F4 (G2 B2- | B2 A2[Q:1/4=106] c2)[Q:1/4=103] B2- | %108
w: |men, a\- *|* * * men,|
"^,"[Q:1/4=101] B2[Q:1/4=97] (A3[Q:1/4=95] B[Q:1/4=93] G2 |[Q:1/4=10][Q:1/4=92] !fermata!^F8 | %110
w: * a\- * *||
 !fermata!G8) |] %111
w: men.|
V:2
 z4 (G4- | G4 B4- | B4 F2 G2 | A8) |"^," D4 (F4- | F4 B,2 D2- | DC E2 B,2 C2 | !fermata!D8) || %8
w: San\-||||cte De\-|||us,|
 z4 D4- | D8 | D4 (D4- | D2 F6) | D4 z2 (G2 | A2 c3 A c2 | B2 A3 G B2 | AG G4 ^F2 | !fermata!G8) || %17
w: San\-||cte for\-||tis, for\-||||tis,|
 z8 | z4 (B4- | B4 F4) | G4 z2 E2 | G2 A2 B4 | G4 z2 B,2 | E2 F2 (G4- | F4 D4) | D4 z2 D2- | %26
w: |San\-||cte et|im- mor- ta-|lis, et|im- mor- ta\-||lis: mi\-|
 D2 D2 =F4- | F2 G2 (A2 B2) | A4 z2 d2- | d2 c2 A2 c2 | (B2 AG ^F3 G) | ^F8 | z4 z2 (A2 | d6 c2) | %34
w: * se- re\-|* re no\- *|bis, mi\-|* se- re- re|no\- * * * *|bis,|no\-||
"^," B2 A2- | A2 G2 ^F2 G2 | (A2 c3 BAG | ^F2 G3 =FAF) | !fermata!G8 ||"^," !fermata!D8 | (D6 E2 | %41
w: bis, mi\-|* se- re- re|no\- * * * *||bis.|Nunc,|Chri\- *|
 F2 D2 F2 F2- | FEDC E>D C2) | !fermata!D8 || z8 | F4 B4- | B2 (B2 A3 B | A2 A3 B G2 | A2 ^F2 F4- | %49
w: ||ste,||te pe\-|* ti\- * *|||
 F4) D4 | z8 | c4 B2 (A2 | G4) F4 | z2 d4 c2 | B2 A2 B2 (F2 | G2 D4)"^," C2 | D6 D2 | %57
w: * mus,||mi- se- re\-|* re,|mi- se-|re- re quae- su\-|* * mus,|quae- su-|
 !fermata!D8 || G6 G2 | (B6 F2 | B4 A2 G2 | G2 ^F2) F4- | F4 z4 | D2 G4 G2 | F4 z2 A2 | %65
w: mus.|Qui ve-|ni\- *||* * sti||re- di- me-|re, re-|
 d3 d c2 B2- | B2 (A2 c2 B2) | (G4"^," F4) | D6 D2 | !fermata!D8 || !fermata!D8 | !fermata!F8 || %72
w: di- me- re per\-|* di\- * *|tos, *|per- di-|tos,|no-|li|
 z4 z2 B2 | (d4 c2 B2- | B2 A2 G4 | F3 E DC B,2 | A,2 B,2)"^," A,2 D2 | (G2 A2 c2 B2 | %78
w: da-|mna\- * *|||* * re re-|dem\- * * *|
 A2 F2 G2 A2 | B6) A2 | z2 A,2 (C2 D2) | (F4"^," !fermata!=E4) || D8- | D4 =E4- | E2 C2 =E2 F2 | %85
w: |* ptos,|re- dem\- *|ptos. *|Qui\-|* a|* per cru- cem|
 (G8 | D4 F4) | B,4 z2 (F2- | FC E2) D4- | D4 z4 | !courtesy!=F3 G A2 F2 | c6 G2 | z4 B,3 B, | %93
w: tu\-||am, tu\-|* * * am||re- de- mi- sti|mun- dum,|re- de-|
 C2 C2 (D4- | D4 C2 B,2 | D4 !courtesy!=F4- | F4 D4) | D8 || z4 (D4- | D2 F2 D2) G2 | %100
w: mi- sti mun\-||||dum.|A\-|* * * men,|
 z2 (A2 B2 G2 | B2 A2 D2) F2 | z2 (G2 c2 A2 | c2 B4) A2 | z4 (D2 G2 | F2 B2 c2 d2- | %106
w: a\- * *|* * * men,|a\- * *|* * men,|a\- *||
 d2 c2) B2 (B,C | DE F2) B,4 | (F6 D2 | !fermata!D8) | !fermata!D8 |] %111
w: * * men, a\- *|* * * men,|a\- *||men.|
V:3
 z8 | (d8- | d8 | f8) | (B4"^," d4) | (c2 d3 cBA | G8) | !fermata!A8 || B8- | B8 | A4 z2 (A2 | %11
w: |San\-|||cte *|De\- * * * *||us,|San\-||cte for\-|
 B2 d4 c2 | B4 d4 |"^," c8 | d2 =e3 d d2- | d2 G2 c4 | !fermata!d8) || (d8 | B4 e4 | d8 | %20
w: |||||tis,|San\-|||
 e4 z2 B2 | e2 f2 (g3 f | e4) d4 | z2 A2 B2 c2 | d3 c B4 | A2 B2 A2 A2 | AD B2) A4 | z4 d4- | %28
w: cte et|im- mor- ta\- *|* lis,|et im- mor-|ta\- * *||* * * lis:|mi\-|
 d2 d2 (f4- | f4 c4) | d4 z4 | (c4 d2 f2- | f2 =e2) e4 | z2 (d2 f2 =e2) |"^," d4 | c2 B2 A2 B2 | %36
w: * se- re\-||re|no\- * *|* * bis,|no\- * *|bis,|mi- se- re- re|
 (c2 e3 dcB | A2 G2 A4) | !fermata!G8 || !fermata!B8 | z4 (B4 | c2 B2 A4 | F4 G4) | !fermata!A8 || %44
w: no\- * * * *||bis.|Nunc,|Chri\-|||ste,|
 z4 G4 | d6 (d2 | B2 d4 c2- | cA c2 B4 | A8) | d4 z2 f2- | f2 e2 d4 | (c2 e2) d3 d | (G4 d4) | z8 | %54
w: te|pe- ti\-||||mus, mi\-|* se- re-|re * quae- su|mus, *||
 z2 f4 c2 | (d2 A2 B2 G2 | A2 B2 A3 A | !fermata!G8 || z8 | z4 z2 d2- | d2 d2 (f2 d2 | c4) d4 | %62
w: mi- se-|re\- * * *|* re quae- su-|mus.||Qui|* ve- ni\- *|* sti|
 z2 d2 f3 f | B2 e4 d2 | B2 c2) d4 | z4 A2 d2- | dd c2 (A2 d2- | d) (e c2 d3 c) |"^," B4 A3 A | %69
w: re- di- me-|re per- di\-|* * tos,|re- di\-|* me- re per\- *|* di\- * * *|tos, per- di-|
 !fermata!A8 || !fermata!B8 | !fermata!c8 || z2 A2 (d4- | d4 e4 | d4 G4) | A4 z4 | d6 (B2 | %77
w: tos,|no-|li|da- mna\-|||re|re- dem\-|
 d2 c4 d2- | dc d2 B2 A2) |"^," G2 B2 (d2 =e2 | f3 =e e2 d2) | !fermata!^c8 || z8 | z8 | c8 | %85
w: ||ptos, re- dem\- *||ptos.|||Qui-|
 d6 G2 | B4 c4 | (d8 | c2 G2 B4 | A6 B2) | A4 z4 | c3 d e2 c2 | g8 | ^f4 z4 | %94
w: a per|cru- cem|tu\-|||am|re- de- mi- sti|mun-|dum,|
 !courtesy!=F3 F G2 G2 | (A3 B c2 d2- | d2 c2 B2 A2- | AF B2)"^," A4 || (G6 A2 | B2 c2) d4- | %100
w: re- de- mi- sti|mun\- * * *||* * * dum.|A\- *|* * men,|
 d2 (c2 d2 B2- | BG d2 B2 A2 | d2 =e2 c4 | d4) G2 (d2- | dB f4 =e2 | d2 f2 =e2) d2 | z2 (A2 B2 G2 | %107
w: * a\- * *|||* men, a\-||* * * men,|a\- * *|
 B2 c2 e2 d2- | d2)"^," c2 (d2 B2 | !fermata!A8) | !fermata!=B8 |] %111
w: |* men, a\- *||men.|
V:4
 (G,8- | G,8 | B,8) |"^," F,8 | (G,4 D,2 F,2- | F,2 D,2 G,3 F, | E,8 | !fermata!D,8) || G,8- | %9
w: San\-|||cte|De\- * *|||us,|San\-|
 G,8 | D,8 | z4 (F,4 | G,4 B,4 | A,8 | G,2 C3 B, G,2 | B,4 A,4 | !fermata!G,8) || (B,8 | G,4 E,4 | %19
w: |cte|for\-|||||tis,|San\-||
 B,8 | E,8- | E,8 | z2 E,2 F,2 D,2 | (G,2 F,2 E,4 | D,4 G,4) | D,8- | D,8 | z8 | D,6 D,2 | %29
w: |cte||et im- mor-|ta\- * *||lis:|||mi- se-|
 F,6 A,2 | G,2 B,2) A,4- | A,4 z2 (D2- | D2 C2 A,2 C2 | B,4 A,4) |"^," D,2 F,2- | F,2 G,2 D,2 G,2 | %36
w: re\- *|* * re|* no\-|||bis, mi\-|* se- re- re|
 (F,2 E,2 G,4 | D,2 E,2 D,2 C2) | !fermata!=B,8 ||"^," !fermata!G,8 | (B,6 A,G, | F,2 G,2 F,4 | %42
w: no\- * *||bis.|Nunc,|Chri\- * *||
 D,2 F,2 E,4) | !fermata!D,8 || G,4 B,4- | B,2 (B,2 G,4- | G,2 A,B, F,4- | F,4 G,4) | D,8- | D,8 | %50
w: |ste,|te pe\-|* ti\- *|||mus,||
 z4 B,4 | A,2 G,4 F,2 | E,3 E, D,2 D2- | D2 C2 B,2 A,2 | G,2 (F,2 B,2 A,2 | G,2 F,2 G,2 E,2 | %56
w: mi-|se- re- re|quae- su- mus, mi\-|* se- re- re|quae- su\- * *||
 D,2"^," G,2 D,2 D,2 | !fermata!=B,8 || z4 G,4- | G,2 G,2 (B,4- | B,2 G,2 F,2 B,2 | A,4) D,4- | %62
w: * mus, quae- su-|mus.|Qui|* ve- ni\-||* sti|
 D,4 z2 D,2 | G,3 G, E,2 B,2- | B,2 A,2 G,2 F,2 | B,4 F,2 G,2 | D,2 F,4 G,2 | E,4) D,4 | %68
w: * re-|di- me- re per\-|* di\- * *|||* tos,|
 z2 (G,2 F,2) D,2 | !fermata!D,8 || !fermata!G,8 | !fermata!F,8 || F,4 (B,3 A, | G,2 F,2 E,4 | %74
w: per\- * di-|tos,|no-|li|da- mna\- *||
 G,2 F,2 E,4) | D,8 | z2 D,2 (F,2 G,2 | B,2 A,4 D,2) | D,4 z4 | z2 G,2 (B,2 C2 | D3 C A,2 B,2) | %81
w: |re|re- dem\- *||ptos,|re- dem\- *||
"^," !fermata!A,8 || G,8 | B,4 C4 | A,8 |"^," G,4 (B,4- | B,2 A,G, F,2 A,2 | G,4 D,4 | %88
w: ptos.|Qui-|a per|cru\--|cem tu\-|||
 F,2 E,2 G,4) | D,8 | z4 F,3 G, | A,2 F,2 (C4 | G,2 B,4 G,2 | A,4 G,4 | D,2 F,2 E,4) | %95
w: |am|re- de-|mi- sti mun\-||||
 D,4 z2 (D,2- | D,E, F,2 G,2 F,2) | D,8 || z4 z2 (D,2 | G,2 F,2 B,2 G,2 | B,2 A,2) G,4 | %101
w: dum, mun\-||dum.|A\-||* * men,|
 z2 (D,2 G,2 F,2 | B,2 C2 A,4) | G,4 z2 (D,2 | G,2 F,2 B,2 C2 | D4 C2 B,2 | A,4) G,4- | %107
w: a\- * *||men, a\-|||* men,|
 G,2 (F,2 G,4 | D,2 F,2 D,2 G,2 | !fermata!D,8) | !fermata!G,8 |] %111
w: * a\- *|||men.|

